X:1
T:Title
%%score 1 2 3 4
L:1/8
Q:1/4=137
M:3/4
K:D
V:1 treble nm="Grand Piano, Soprano"
V:2 bass nm="Grand Piano, Staff-1"
V:3 bass nm="Choir Pad, Staff-2"
V:4 bass nm="Choir Pad, Den Haag, Joachim a Burgk"
V:1
 G2 E4 | F2 G4 | A2 B4- | B2 B4 | e2 d4 | c2 B4 | B2 ^A3 ^G | ^A2 B4 | ^G2 A4 | B2 A4 | A2 ^G4- | %11
w: By~Joachim~a~Burgk~(1540\-1616) *|||||||||||
 G2 A4 | d2 c3 B | c2 B4 | B2 ^A4- | A2 B4 | B2 B4 | A2 G4 | A2 B4- | B2 B4 | ^G2 A4 | A2 F4 | %22
w: |||||||||||
 E2 ^D3 C | ^D2 E4- | E6- | E2 z2 z2 |] %26
w: ||||
V:2
 B,2 B,4 | B,2 E4 | E2[K:treble] ^D3 C | ^D2 E4 | G2 F4 | F2 F4 | F2 F3 ^G | F2 F4 | E2 E4 | %9
 E2 E4 | ^D2 E4- | E2 E4 | A2 A3 B | A2 F4 | E2 F4- | F2 F4 | G2 G4 | F2 D4 | F2 G4- | G2 F4 | %20
 E2 F4 | E2 D4 | A,2 B,3 C | B,2 B,4- | B,6- | B,2 z2 z2 |] %26
V:3
 E,2 G,4 | F,2 E,4 | E,2 F,4- | F,2 G,4 | B,2 B,4 | C2 D4 | E2 C4- | C2 D4 | B,2 C4 | B,2 C4 | %10
 A,2 B,4- | B,2[K:treble] C4 | F2 E4- | E2 D4 | B,2 C4- | C2 D4 | E2 E4 | C2 B,4 | C2 E4- | E2 D4 | %20
 B,2 D4 | C2[K:bass] B,4 | E,2 F,4- | F,2 ^G,4- | G,6- | G,2 z2 z2 |] %26
V:4
 E,2 E,4 | D,2 =C,4 | =C,2 B,,4- | B,,2 E,4 | E,2 B,,4 | ^A,,2 B,,4 | E,2 F,3 E, | F,2 B,,4 | %8
 E,2 A,4 | ^G,2 A,4 | F,2 E,4- | E,2 A,4 | D,2 A,3 ^G, | A,2 B,4 | G,2 F,4- | F,2 B,,4 | E,2 E,4 | %17
 F,2 G,4 | F,2 E,4- | E,2 B,,4 | E,2 D,4 | A,,2 B,,4 | =C,2 B,,3 A,, | B,,2 E,4- | E,6- | %25
 E,2 z2 z2 |] %26

